images/3233068.svg

<?xml version="1.0" encoding="UTF-8"?>
<svg xmlns="http://www.w3.org/2000/svg" xmlns:xlink="http://www.w3.org/1999/xlink" width="300pt" height="300pt" viewBox="0 0 300 300" version="1.1">
<defs>
<g>
<symbol overflow="visible" id="glyph0-0">
<path style="stroke:none;" d="M 0.453125 1.59375 L 0.453125 -6.34375 L 4.953125 -6.34375 L 4.953125 1.59375 Z M 0.953125 1.09375 L 4.453125 1.09375 L 4.453125 -5.84375 L 0.953125 -5.84375 Z M 0.953125 1.09375 "/>
</symbol>
<symbol overflow="visible" id="glyph0-1">
<path style="stroke:none;" d="M 0.890625 -6.5625 L 2.078125 -6.5625 L 4.984375 -1.078125 L 4.984375 -6.5625 L 5.84375 -6.5625 L 5.84375 0 L 4.65625 0 L 1.75 -5.484375 L 1.75 0 L 0.890625 0 Z M 0.890625 -6.5625 "/>
</symbol>
</g>
</defs>
<g id="surface40253">
<rect x="0" y="0" width="300" height="300" style="fill:rgb(100%,100%,100%);fill-opacity:1;stroke:none;"/>
<path style="fill:none;stroke-width:1.2;stroke-linecap:butt;stroke-linejoin:miter;stroke:rgb(0%,0%,0%);stroke-opacity:1;stroke-miterlimit:10;" d="M 35.25 194.832031 L 45.171875 187.808594 "/>
<path style="fill:none;stroke-width:1.2;stroke-linecap:butt;stroke-linejoin:miter;stroke:rgb(0%,0%,100%);stroke-opacity:1;stroke-miterlimit:10;" d="M 45.171875 187.808594 L 55.09375 180.785156 "/>
<path style="fill:none;stroke-width:1.2;stroke-linecap:butt;stroke-linejoin:miter;stroke:rgb(0%,0%,100%);stroke-opacity:1;stroke-miterlimit:10;" d="M 55.09375 180.785156 L 53.972656 168.679688 "/>
<path style="fill:none;stroke-width:1.2;stroke-linecap:butt;stroke-linejoin:miter;stroke:rgb(0%,0%,0%);stroke-opacity:1;stroke-miterlimit:10;" d="M 53.972656 168.679688 L 52.851562 156.574219 "/>
<path style="fill:none;stroke-width:1.2;stroke-linecap:butt;stroke-linejoin:miter;stroke:rgb(0%,0%,0%);stroke-opacity:1;stroke-miterlimit:10;" d="M 77.179688 190.945312 L 66.136719 185.867188 "/>
<path style="fill:none;stroke-width:1.2;stroke-linecap:butt;stroke-linejoin:miter;stroke:rgb(0%,0%,100%);stroke-opacity:1;stroke-miterlimit:10;" d="M 66.136719 185.867188 L 55.09375 180.785156 "/>
<path style=" stroke:none;fill-rule:nonzero;fill:rgb(100%,100%,100%);fill-opacity:1;" d="M 52.09375 175.285156 L 59.09375 175.285156 L 59.09375 186.285156 L 52.09375 186.285156 Z M 52.09375 175.285156 "/>
<g style="fill:rgb(0%,0%,100%);fill-opacity:1;">
  <use xlink:href="#glyph0-1" x="52.09375" y="183.948242"/>
</g>
<path style="fill:none;stroke-width:1.2;stroke-linecap:butt;stroke-linejoin:miter;stroke:rgb(0%,0%,0%);stroke-opacity:1;stroke-miterlimit:10;" d="M 52.851562 156.574219 L 72.695312 142.527344 "/>
<path style="fill:none;stroke-width:1.2;stroke-linecap:butt;stroke-linejoin:miter;stroke:rgb(0%,0%,0%);stroke-opacity:1;stroke-miterlimit:10;" d="M 72.695312 142.527344 L 83.738281 147.609375 "/>
<path style="fill:none;stroke-width:1.2;stroke-linecap:butt;stroke-linejoin:miter;stroke:rgb(0%,0%,100%);stroke-opacity:1;stroke-miterlimit:10;" d="M 83.738281 147.609375 L 94.78125 152.691406 "/>
<path style="fill:none;stroke-width:1.2;stroke-linecap:butt;stroke-linejoin:miter;stroke:rgb(0%,0%,100%);stroke-opacity:1;stroke-miterlimit:10;" d="M 94.78125 152.691406 L 95.902344 164.796875 "/>
<path style="fill:none;stroke-width:1.2;stroke-linecap:butt;stroke-linejoin:miter;stroke:rgb(0%,0%,0%);stroke-opacity:1;stroke-miterlimit:10;" d="M 95.902344 164.796875 L 97.023438 176.898438 "/>
<path style="fill:none;stroke-width:1.2;stroke-linecap:butt;stroke-linejoin:miter;stroke:rgb(0%,0%,100%);stroke-opacity:1;stroke-miterlimit:10;" d="M 94.78125 152.691406 L 104.703125 145.667969 "/>
<path style="fill:none;stroke-width:1.2;stroke-linecap:butt;stroke-linejoin:miter;stroke:rgb(0%,0%,0%);stroke-opacity:1;stroke-miterlimit:10;" d="M 104.703125 145.667969 L 114.625 138.644531 "/>
<path style=" stroke:none;fill-rule:nonzero;fill:rgb(100%,100%,100%);fill-opacity:1;" d="M 91.78125 147.191406 L 98.78125 147.191406 L 98.78125 158.191406 L 91.78125 158.191406 Z M 91.78125 147.191406 "/>
<g style="fill:rgb(0%,0%,100%);fill-opacity:1;">
  <use xlink:href="#glyph0-1" x="91.78125" y="155.854492"/>
</g>
<path style="fill:none;stroke-width:1.2;stroke-linecap:butt;stroke-linejoin:miter;stroke:rgb(0%,0%,0%);stroke-opacity:1;stroke-miterlimit:10;" d="M 97.023438 176.898438 L 77.179688 190.945312 "/>
<path style="fill:none;stroke-width:1.2;stroke-linecap:butt;stroke-linejoin:miter;stroke:rgb(0%,0%,0%);stroke-opacity:1;stroke-miterlimit:10;" d="M 114.625 138.644531 L 125.667969 143.722656 "/>
<path style="fill:none;stroke-width:1.2;stroke-linecap:butt;stroke-linejoin:miter;stroke:rgb(0%,0%,100%);stroke-opacity:1;stroke-miterlimit:10;" d="M 125.667969 143.722656 L 136.714844 148.804688 "/>
<path style="fill:none;stroke-width:1.2;stroke-linecap:butt;stroke-linejoin:miter;stroke:rgb(0%,0%,0%);stroke-opacity:1;stroke-miterlimit:10;" d="M 119.226562 134.460938 L 128.058594 138.527344 "/>
<path style="fill:none;stroke-width:1.2;stroke-linecap:butt;stroke-linejoin:miter;stroke:rgb(0%,0%,100%);stroke-opacity:1;stroke-miterlimit:10;" d="M 128.058594 138.527344 L 136.894531 142.589844 "/>
<path style="fill:none;stroke-width:1.2;stroke-linecap:butt;stroke-linejoin:miter;stroke:rgb(0%,0%,0%);stroke-opacity:1;stroke-miterlimit:10;" d="M 112.382812 114.433594 L 114.625 138.644531 "/>
<path style="fill:none;stroke-width:1.2;stroke-linecap:butt;stroke-linejoin:miter;stroke:rgb(0%,0%,100%);stroke-opacity:1;stroke-miterlimit:10;" d="M 136.714844 148.804688 L 146.636719 141.78125 "/>
<path style="fill:none;stroke-width:1.2;stroke-linecap:butt;stroke-linejoin:miter;stroke:rgb(0%,0%,0%);stroke-opacity:1;stroke-miterlimit:10;" d="M 146.636719 141.78125 L 156.558594 134.757812 "/>
<path style=" stroke:none;fill-rule:nonzero;fill:rgb(100%,100%,100%);fill-opacity:1;" d="M 133.714844 143.304688 L 140.714844 143.304688 L 140.714844 154.304688 L 133.714844 154.304688 Z M 133.714844 143.304688 "/>
<g style="fill:rgb(0%,0%,100%);fill-opacity:1;">
  <use xlink:href="#glyph0-1" x="133.714844" y="151.967773"/>
</g>
<path style="fill:none;stroke-width:1.2;stroke-linecap:butt;stroke-linejoin:miter;stroke:rgb(0%,0%,0%);stroke-opacity:1;stroke-miterlimit:10;" d="M 156.558594 134.757812 L 155.433594 122.652344 "/>
<path style="fill:none;stroke-width:1.2;stroke-linecap:butt;stroke-linejoin:miter;stroke:rgb(0%,0%,100%);stroke-opacity:1;stroke-miterlimit:10;" d="M 155.433594 122.652344 L 154.3125 110.546875 "/>
<path style="fill:none;stroke-width:1.2;stroke-linecap:butt;stroke-linejoin:miter;stroke:rgb(0%,0%,0%);stroke-opacity:1;stroke-miterlimit:10;" d="M 150.636719 132.863281 L 149.738281 123.179688 "/>
<path style="fill:none;stroke-width:1.2;stroke-linecap:butt;stroke-linejoin:miter;stroke:rgb(0%,0%,100%);stroke-opacity:1;stroke-miterlimit:10;" d="M 149.738281 123.179688 L 148.839844 113.496094 "/>
<path style="fill:none;stroke-width:1.2;stroke-linecap:butt;stroke-linejoin:miter;stroke:rgb(0%,0%,0%);stroke-opacity:1;stroke-miterlimit:10;" d="M 156.558594 134.757812 L 178.644531 144.917969 "/>
<path style="fill:none;stroke-width:1.2;stroke-linecap:butt;stroke-linejoin:miter;stroke:rgb(0%,0%,100%);stroke-opacity:1;stroke-miterlimit:10;" d="M 154.3125 110.546875 L 143.269531 105.46875 "/>
<path style="fill:none;stroke-width:1.2;stroke-linecap:butt;stroke-linejoin:miter;stroke:rgb(0%,0%,0%);stroke-opacity:1;stroke-miterlimit:10;" d="M 143.269531 105.46875 L 132.226562 100.386719 "/>
<path style=" stroke:none;fill-rule:nonzero;fill:rgb(100%,100%,100%);fill-opacity:1;" d="M 151.3125 105.046875 L 158.3125 105.046875 L 158.3125 116.046875 L 151.3125 116.046875 Z M 151.3125 105.046875 "/>
<g style="fill:rgb(0%,0%,100%);fill-opacity:1;">
  <use xlink:href="#glyph0-1" x="151.3125" y="113.709961"/>
</g>
<path style="fill:none;stroke-width:1.2;stroke-linecap:butt;stroke-linejoin:miter;stroke:rgb(0%,0%,0%);stroke-opacity:1;stroke-miterlimit:10;" d="M 132.226562 100.386719 L 112.382812 114.433594 "/>
<path style="fill:none;stroke-width:1.2;stroke-linecap:butt;stroke-linejoin:miter;stroke:rgb(0%,0%,0%);stroke-opacity:1;stroke-miterlimit:10;" d="M 133.546875 106.460938 L 117.671875 117.699219 "/>
<path style="fill:none;stroke-width:1.2;stroke-linecap:butt;stroke-linejoin:miter;stroke:rgb(0%,0%,0%);stroke-opacity:1;stroke-miterlimit:10;" d="M 178.644531 144.917969 L 180.886719 169.128906 "/>
<path style="fill:none;stroke-width:1.2;stroke-linecap:butt;stroke-linejoin:miter;stroke:rgb(0%,0%,0%);stroke-opacity:1;stroke-miterlimit:10;" d="M 184.566406 146.8125 L 186.359375 166.179688 "/>
<path style="fill:none;stroke-width:1.2;stroke-linecap:butt;stroke-linejoin:miter;stroke:rgb(0%,0%,0%);stroke-opacity:1;stroke-miterlimit:10;" d="M 198.488281 130.871094 L 178.644531 144.917969 "/>
<path style="fill:none;stroke-width:1.2;stroke-linecap:butt;stroke-linejoin:miter;stroke:rgb(0%,0%,0%);stroke-opacity:1;stroke-miterlimit:10;" d="M 180.886719 169.128906 L 202.976562 179.289062 "/>
<path style="fill:none;stroke-width:1.2;stroke-linecap:butt;stroke-linejoin:miter;stroke:rgb(0%,0%,0%);stroke-opacity:1;stroke-miterlimit:10;" d="M 202.976562 179.289062 L 222.820312 165.242188 "/>
<path style="fill:none;stroke-width:1.2;stroke-linecap:butt;stroke-linejoin:miter;stroke:rgb(0%,0%,0%);stroke-opacity:1;stroke-miterlimit:10;" d="M 201.652344 173.214844 L 217.527344 161.976562 "/>
<path style="fill:none;stroke-width:1.2;stroke-linecap:butt;stroke-linejoin:miter;stroke:rgb(0%,0%,0%);stroke-opacity:1;stroke-miterlimit:10;" d="M 222.820312 165.242188 L 220.574219 141.035156 "/>
<path style="fill:none;stroke-width:1.2;stroke-linecap:butt;stroke-linejoin:miter;stroke:rgb(0%,0%,0%);stroke-opacity:1;stroke-miterlimit:10;" d="M 222.820312 165.242188 L 233.863281 170.324219 "/>
<path style="fill:none;stroke-width:1.2;stroke-linecap:butt;stroke-linejoin:miter;stroke:rgb(0%,0%,100%);stroke-opacity:1;stroke-miterlimit:10;" d="M 233.863281 170.324219 L 244.90625 175.402344 "/>
<path style="fill:none;stroke-width:1.2;stroke-linecap:butt;stroke-linejoin:miter;stroke:rgb(0%,0%,0%);stroke-opacity:1;stroke-miterlimit:10;" d="M 220.574219 141.035156 L 198.488281 130.871094 "/>
<path style="fill:none;stroke-width:1.2;stroke-linecap:butt;stroke-linejoin:miter;stroke:rgb(0%,0%,0%);stroke-opacity:1;stroke-miterlimit:10;" d="M 215.976562 145.214844 L 198.304688 137.085938 "/>
<path style="fill:none;stroke-width:1.2;stroke-linecap:butt;stroke-linejoin:miter;stroke:rgb(0%,0%,100%);stroke-opacity:1;stroke-miterlimit:10;" d="M 244.90625 175.402344 L 246.027344 187.507812 "/>
<path style="fill:none;stroke-width:1.2;stroke-linecap:butt;stroke-linejoin:miter;stroke:rgb(0%,0%,0%);stroke-opacity:1;stroke-miterlimit:10;" d="M 246.027344 187.507812 L 247.148438 199.613281 "/>
<path style="fill:none;stroke-width:1.2;stroke-linecap:butt;stroke-linejoin:miter;stroke:rgb(0%,0%,100%);stroke-opacity:1;stroke-miterlimit:10;" d="M 244.90625 175.402344 L 254.828125 168.378906 "/>
<path style="fill:none;stroke-width:1.2;stroke-linecap:butt;stroke-linejoin:miter;stroke:rgb(0%,0%,0%);stroke-opacity:1;stroke-miterlimit:10;" d="M 254.828125 168.378906 L 264.75 161.355469 "/>
<path style=" stroke:none;fill-rule:nonzero;fill:rgb(100%,100%,100%);fill-opacity:1;" d="M 241.90625 169.902344 L 248.90625 169.902344 L 248.90625 180.902344 L 241.90625 180.902344 Z M 241.90625 169.902344 "/>
<g style="fill:rgb(0%,0%,100%);fill-opacity:1;">
  <use xlink:href="#glyph0-1" x="241.90625" y="178.56543"/>
</g>
</g>
</svg>

<svg xmlns="http://www.w3.org/2000/svg" xmlns:xlink="http://www.w3.org/1999/xlink" width="300pt" height="300pt" viewBox="0 0 300 300"><defs><symbol overflow="visible"><path d="M.453 1.594v-7.938h4.5v7.938zm.5-.5h3.5v-6.938h-3.5zm0 0"/></symbol><symbol overflow="visible" id="a"><path d="M.89-6.563H2.08l2.906 5.485v-5.484h.86V0H4.656L1.75-5.484V0H.89zm0 0"/></symbol></defs><g><path fill="#fff" d="M0 0h300v300H0z"/><path d="M35.25 194.832l9.922-7.023" stroke-width="1.2" stroke="#000" stroke-miterlimit="10" fill="none"/><path d="M45.172 187.81l9.922-7.025M55.094 180.785l-1.12-12.105" stroke-width="1.2" stroke="#00f" stroke-miterlimit="10" fill="none"/><path d="M53.973 168.68l-1.12-12.106M77.18 190.945l-11.043-5.078" stroke-width="1.2" stroke="#000" stroke-miterlimit="10" fill="none"/><path d="M66.137 185.867l-11.043-5.082" stroke-width="1.2" stroke="#00f" stroke-miterlimit="10" fill="none"/><path d="M52.094 175.285h7v11h-7zm0 0" fill="#fff"/><use xlink:href="#a" x="52.094" y="183.948" fill="#00f"/><path d="M52.852 156.574l19.843-14.047M72.695 142.527l11.043 5.082" stroke-width="1.2" stroke="#000" stroke-miterlimit="10" fill="none"/><path d="M83.738 147.61l11.043 5.08M94.78 152.69l1.122 12.107" stroke-width="1.2" stroke="#00f" stroke-miterlimit="10" fill="none"/><path d="M95.902 164.797l1.12 12.1" stroke-width="1.2" stroke="#000" stroke-miterlimit="10" fill="none"/><path d="M94.78 152.69l9.923-7.022" stroke-width="1.2" stroke="#00f" stroke-miterlimit="10" fill="none"/><path d="M104.703 145.668l9.922-7.023" stroke-width="1.2" stroke="#000" stroke-miterlimit="10" fill="none"/><path d="M91.78 147.19h7v11h-7zm0 0" fill="#fff"/><use xlink:href="#a" x="91.781" y="155.854" fill="#00f"/><path d="M97.023 176.898L77.18 190.945M114.625 138.645l11.043 5.078" stroke-width="1.2" stroke="#000" stroke-miterlimit="10" fill="none"/><path d="M125.668 143.723l11.047 5.082" stroke-width="1.2" stroke="#00f" stroke-miterlimit="10" fill="none"/><path d="M119.227 134.46l8.832 4.067" stroke-width="1.2" stroke="#000" stroke-miterlimit="10" fill="none"/><path d="M128.06 138.527l8.835 4.063" stroke-width="1.2" stroke="#00f" stroke-miterlimit="10" fill="none"/><path d="M112.383 114.434l2.242 24.21" stroke-width="1.2" stroke="#000" stroke-miterlimit="10" fill="none"/><path d="M136.715 148.805l9.922-7.024" stroke-width="1.2" stroke="#00f" stroke-miterlimit="10" fill="none"/><path d="M146.637 141.78l9.922-7.022" stroke-width="1.2" stroke="#000" stroke-miterlimit="10" fill="none"/><path d="M133.715 143.305h7v11h-7zm0 0" fill="#fff"/><use xlink:href="#a" x="133.715" y="151.968" fill="#00f"/><path d="M156.56 134.758l-1.126-12.106" stroke-width="1.2" stroke="#000" stroke-miterlimit="10" fill="none"/><path d="M155.434 122.652l-1.12-12.105" stroke-width="1.2" stroke="#00f" stroke-miterlimit="10" fill="none"/><path d="M150.637 132.863l-.9-9.683" stroke-width="1.2" stroke="#000" stroke-miterlimit="10" fill="none"/><path d="M149.738 123.18l-.898-9.684" stroke-width="1.2" stroke="#00f" stroke-miterlimit="10" fill="none"/><path d="M156.56 134.758l22.085 10.16" stroke-width="1.2" stroke="#000" stroke-miterlimit="10" fill="none"/><path d="M154.313 110.547l-11.043-5.078" stroke-width="1.2" stroke="#00f" stroke-miterlimit="10" fill="none"/><path d="M143.27 105.47l-11.043-5.083" stroke-width="1.2" stroke="#000" stroke-miterlimit="10" fill="none"/><path d="M151.313 105.047h7v11h-7zm0 0" fill="#fff"/><use xlink:href="#a" x="151.313" y="113.71" fill="#00f"/><path d="M132.227 100.387l-19.844 14.047M133.547 106.46l-15.875 11.24M178.645 144.918l2.242 24.21M184.566 146.813l1.793 19.367M198.488 130.87l-19.843 14.048M180.887 169.13l22.09 10.16M202.977 179.29l19.843-14.048M201.652 173.215l15.875-11.238M222.82 165.242l-2.246-24.207M222.82 165.242l11.043 5.082" stroke-width="1.2" stroke="#000" stroke-miterlimit="10" fill="none"/><path d="M233.863 170.324l11.043 5.078" stroke-width="1.2" stroke="#00f" stroke-miterlimit="10" fill="none"/><path d="M220.574 141.035l-22.086-10.164M215.977 145.215l-17.672-8.13" stroke-width="1.2" stroke="#000" stroke-miterlimit="10" fill="none"/><path d="M244.906 175.402l1.12 12.106" stroke-width="1.2" stroke="#00f" stroke-miterlimit="10" fill="none"/><path d="M246.027 187.508l1.12 12.105" stroke-width="1.2" stroke="#000" stroke-miterlimit="10" fill="none"/><path d="M244.906 175.402l9.922-7.023" stroke-width="1.2" stroke="#00f" stroke-miterlimit="10" fill="none"/><path d="M254.828 168.38l9.922-7.025" stroke-width="1.2" stroke="#000" stroke-miterlimit="10" fill="none"/><path d="M241.906 169.902h7v11h-7zm0 0" fill="#fff"/><use xlink:href="#a" x="241.906" y="178.565" fill="#00f"/></g></svg>
